svg/lasso.svg

<svg xmlns="http://www.w3.org/2000/svg" viewBox="0 0 24 24"><path d="M12 2c5.5 0 10 3.13 10 7 0 3.26-3.19 6-7.5 6.78v-.28a5 5 0 0 0-.29-1.69C17.55 13.21 20 11.28 20 9c0-2.76-3.58-5-8-5S4 6.24 4 9c0 1.19.67 2.29 1.79 3.15-.44.49-.79 1.06-1.01 1.7C3.06 12.59 2 10.88 2 9c0-3.87 4.5-7 10-7M9.5 12c1.93 0 3.5 1.57 3.5 3.5 0 1.9-1.5 3.45-3.4 3.5-.21.36-.42 1 .23 1.68 1.17 1.2 3.45-.96 6.56-.97 2.04-.01 3.64.26 3.64.26s1.05.13.94 1.07c-.11.93-1.06.93-1.06.93-.38-.04-1.88-.39-3.69-.29-1.81.09-2.75.73-3.66 1.01-.9.28-2.65.69-4.26-.64-1.33-1.09-.84-2.94-.63-3.55a3.55 3.55 0 0 1-1.67-3C6 13.57 7.57 12 9.5 12m0 2c-.83 0-1.5.67-1.5 1.5S8.67 17 9.5 17s1.5-.67 1.5-1.5-.67-1.5-1.5-1.5"/></svg>

<?xml version="1.0" encoding="UTF-8"?><!DOCTYPE svg PUBLIC "-//W3C//DTD SVG 1.1//EN" "http://www.w3.org/Graphics/SVG/1.1/DTD/svg11.dtd"><svg xmlns="http://www.w3.org/2000/svg" xmlns:xlink="http://www.w3.org/1999/xlink" version="1.1" id="mdi-lasso" width="24" height="24" viewBox="0 0 24 24"><path d="M12 2C17.5 2 22 5.13 22 9C22 12.26 18.81 15 14.5 15.78L14.5 15.5C14.5 14.91 14.4 14.34 14.21 13.81C17.55 13.21 20 11.28 20 9C20 6.24 16.42 4 12 4C7.58 4 4 6.24 4 9C4 10.19 4.67 11.29 5.79 12.15C5.35 12.64 5 13.21 4.78 13.85C3.06 12.59 2 10.88 2 9C2 5.13 6.5 2 12 2M9.5 12C11.43 12 13 13.57 13 15.5C13 17.4 11.5 18.95 9.6 19C9.39 19.36 9.18 20 9.83 20.68C11 21.88 13.28 19.72 16.39 19.71C18.43 19.7 20.03 19.97 20.03 19.97C20.03 19.97 21.08 20.1 20.97 21.04C20.86 21.97 19.91 21.97 19.91 21.97C19.53 21.93 18.03 21.58 16.22 21.68C14.41 21.77 13.47 22.41 12.56 22.69C11.66 22.97 9.91 23.38 8.3 22.05C6.97 20.96 7.46 19.11 7.67 18.5C6.67 17.87 6 16.76 6 15.5C6 13.57 7.57 12 9.5 12M9.5 14C8.67 14 8 14.67 8 15.5C8 16.33 8.67 17 9.5 17C10.33 17 11 16.33 11 15.5C11 14.67 10.33 14 9.5 14Z" /></svg>
